X: 5491
T: Bunker Hill
R: reel
M: 4/4
K: Dmixolydian
cA|:GE E2 D3G|(3EFG AB c2 Bc|A3G EFGE|ABcA d2 cA:|
|:Gc c2 ec c2|GccB cBAG|Ad d2 fd d2|Adde dcAG|
(3EFG AB cAdB|cAdB c2 Bc|dBcA BG G2|1 ABcA d2 cA:|2 ABcA d2 ag||
|:fd d2 fadf|adfa a2 gf|ge e2 gbeg|begb b2 ag|
fdde dcAB|cAdB c2 Bc|dBcA BG G2|1 ABcA d2 ag:|2 ABcA d2||

